_includes/icons/ios-google-maps.svg

<svg fill="#666" height="50" viewBox="0 0 50 50" width="50" xmlns="http://www.w3.org/2000/svg"><path d="m36 2c-3.539062 0-6.707031 1.554688-8.90625 4h-20.75c-2.382812 0-4.34375 1.960938-4.34375 4.34375v32.875c-.015625.105469-.015625.207031 0 .3125v.125c0 2.382813 1.960938 4.34375 4.34375 4.34375h33.3125c2.382813 0 4.34375-1.960937 4.34375-4.34375v-.09375c.015625-.105469.015625-.207031 0-.3125v-19.8125c2.105469-2.804687 4-5.542969 4-9.4375 0-6.617187-5.382812-12-12-12zm0 2c5.535156 0 10 4.464844 10 10 0 3.414063-1.691406 5.691406-3.90625 8.625-2.121094 2.808594-4.617187 6.199219-6.09375 11.3125-1.476562-5.113281-3.972656-8.503906-6.09375-11.3125-.824219-1.09375-1.597656-2.089844-2.21875-3.09375 0-.011719 0-.019531 0-.03125-.011719-.019531-.019531-.042969-.03125-.0625-.042969-.164062-.128906-.316406-.25-.4375-.863281-1.519531-1.40625-3.078125-1.40625-5 0-5.535156 4.464844-10 10-10zm-29.65625 4h19.28125c-1.027344 1.765625-1.625 3.8125-1.625 6 0 2.136719.578125 3.917969 1.4375 5.5625l-21.4375 21.40625v-30.625c0-1.300781 1.042969-2.34375 2.34375-2.34375zm5.78125 2c-3.375 0-6.125 2.75-6.125 6.125s2.75 6.09375 6.125 6.09375c5.34375 0 6.253906-4.804687 5.75-7.1875h-5.75v2.34375h3.3125c-.433594 1.414063-1.601562 2.4375-3.3125 2.4375-2.035156 0-3.6875-1.652344-3.6875-3.6875s1.652344-3.6875 3.6875-3.6875c.914063 0 1.730469.324219 2.375.875l1.71875-1.71875c-1.085937-.988281-2.507812-1.59375-4.09375-1.59375zm23.875 0c-2.199219 0-4 1.800781-4 4s1.800781 4 4 4 4-1.800781 4-4-1.800781-4-4-4zm0 2c1.117188 0 2 .882813 2 2 0 1.117188-.882812 2-2 2-1.117187 0-2-.882812-2-2 0-1.117187.882813-2 2-2zm-9.5 9.3125c.5625.847656 1.148438 1.695313 1.78125 2.53125.007813.011719.023438.019531.03125.03125l-22.09375 22.09375c-1.195312-.066406-2.121094-.992187-2.1875-2.1875zm3 4.1875c1.429688 1.953125 2.855469 4.121094 3.9375 6.9375l-5.4375-5.4375zm12.5.65625v14.8125l-4.65625-4.625c.046875-.082031.097656-.175781.125-.25.164063-.433594.144531-.71875.21875-1 .996094-3.828125 2.625-6.570312 4.3125-8.9375zm-15.40625 2.25 15.375 15.375c-.066406 1.195313-.992187 2.121094-2.1875 2.1875l-15.375-15.375zm-3.59375 3.59375 13.96875 14h-27.9375z"/></svg>

<svg xmlns="http://www.w3.org/2000/svg" viewBox="0 0 50 50" width="50" height="50" fill="#666"><path d="M 36 2 C 32.460938 2 29.292969 3.554688 27.09375 6 L 6.34375 6 C 3.960938 6 2 7.960938 2 10.34375 L 2 43.21875 C 1.984375 43.324219 1.984375 43.425781 2 43.53125 L 2 43.65625 C 2 46.039063 3.960938 48 6.34375 48 L 39.65625 48 C 42.039063 48 44 46.039063 44 43.65625 L 44 43.5625 C 44.015625 43.457031 44.015625 43.355469 44 43.25 L 44 23.4375 C 46.105469 20.632813 48 17.894531 48 14 C 48 7.382813 42.617188 2 36 2 Z M 36 4 C 41.535156 4 46 8.464844 46 14 C 46 17.414063 44.308594 19.691406 42.09375 22.625 C 39.972656 25.433594 37.476563 28.824219 36 33.9375 C 34.523438 28.824219 32.027344 25.433594 29.90625 22.625 C 29.082031 21.53125 28.308594 20.535156 27.6875 19.53125 C 27.6875 19.519531 27.6875 19.511719 27.6875 19.5 C 27.675781 19.480469 27.667969 19.457031 27.65625 19.4375 C 27.613281 19.273438 27.527344 19.121094 27.40625 19 C 26.542969 17.480469 26 15.921875 26 14 C 26 8.464844 30.464844 4 36 4 Z M 6.34375 8 L 25.625 8 C 24.597656 9.765625 24 11.8125 24 14 C 24 16.136719 24.578125 17.917969 25.4375 19.5625 L 4 40.96875 L 4 10.34375 C 4 9.042969 5.042969 8 6.34375 8 Z M 12.125 10 C 8.75 10 6 12.75 6 16.125 C 6 19.5 8.75 22.21875 12.125 22.21875 C 17.46875 22.21875 18.378906 17.414063 17.875 15.03125 L 12.125 15.03125 L 12.125 17.375 L 15.4375 17.375 C 15.003906 18.789063 13.835938 19.8125 12.125 19.8125 C 10.089844 19.8125 8.4375 18.160156 8.4375 16.125 C 8.4375 14.089844 10.089844 12.4375 12.125 12.4375 C 13.039063 12.4375 13.855469 12.761719 14.5 13.3125 L 16.21875 11.59375 C 15.132813 10.605469 13.710938 10 12.125 10 Z M 36 10 C 33.800781 10 32 11.800781 32 14 C 32 16.199219 33.800781 18 36 18 C 38.199219 18 40 16.199219 40 14 C 40 11.800781 38.199219 10 36 10 Z M 36 12 C 37.117188 12 38 12.882813 38 14 C 38 15.117188 37.117188 16 36 16 C 34.882813 16 34 15.117188 34 14 C 34 12.882813 34.882813 12 36 12 Z M 26.5 21.3125 C 27.0625 22.160156 27.648438 23.007813 28.28125 23.84375 C 28.289063 23.855469 28.304688 23.863281 28.3125 23.875 L 6.21875 45.96875 C 5.023438 45.902344 4.097656 44.976563 4.03125 43.78125 Z M 29.5 25.5 C 30.929688 27.453125 32.355469 29.621094 33.4375 32.4375 L 28 27 Z M 42 26.15625 L 42 40.96875 L 37.34375 36.34375 C 37.390625 36.261719 37.441406 36.167969 37.46875 36.09375 C 37.632813 35.660156 37.613281 35.375 37.6875 35.09375 C 38.683594 31.265625 40.3125 28.523438 42 26.15625 Z M 26.59375 28.40625 L 41.96875 43.78125 C 41.902344 44.976563 40.976563 45.902344 39.78125 45.96875 L 24.40625 30.59375 Z M 23 32 L 36.96875 46 L 9.03125 46 Z"/></svg>
